docs/.gitbook/assets/icon-hammer-16@dark.svg

<svg width="32" height="32" viewBox="0 0 16 16" fill="none" xmlns="http://www.w3.org/2000/svg">
<rect x="0" y="0" width="16" height="16" fill="#181c1f"/>
<path fill-rule="evenodd" clip-rule="evenodd" d="M5.82839 2.19993C7.32013 0.600025 9.76191 0.600024 11.2536 2.19993L14.4998 5.68142C15.1667 6.39678 15.1667 7.53631 14.4998 8.25168L13.4177 9.41217C12.7228 10.1575 11.5728 10.1575 10.8779 9.41217L10.5172 9.02534C10.4598 8.9638 10.3974 8.94342 10.3444 8.94342C10.2914 8.94342 10.229 8.9638 10.1716 9.02534L9.81093 9.41217L5.1221 14.441C4.42716 15.1863 3.27723 15.1863 2.58228 14.441L1.50025 13.2805C0.833251 12.5651 0.833251 11.4256 1.50025 10.7102L6.18907 5.68142L6.54975 5.29459C6.67955 5.15538 6.67955 4.90939 6.54975 4.77018L5.46772 3.60968C5.19912 3.32161 5.19912 2.87484 5.46772 2.58676L5.82839 2.19993ZM7.04572 3.10254L7.64685 3.74726C8.27462 4.42054 8.31154 5.46957 7.75762 6.18706L9.27654 7.81611C9.9766 7.26335 10.9831 7.32546 11.6143 8.00242L11.975 8.38925C12.0324 8.45079 12.0948 8.47117 12.1478 8.47117C12.2008 8.47117 12.2632 8.45079 12.3206 8.38925L13.4027 7.22875C13.5324 7.08955 13.5324 6.84355 13.4027 6.70434L10.1565 3.22285C9.297 2.30098 7.94787 2.26087 7.04572 3.10254ZM8.23695 8.90071L6.73762 7.29267L2.59735 11.7332C2.46755 11.8724 2.46755 12.1184 2.59735 12.2576L3.67938 13.4181C3.73677 13.4796 3.79919 13.5 3.85219 13.5C3.90519 13.5 3.96762 13.4796 4.025 13.4181L8.23695 8.90071Z" fill="#fff"/>
</svg>

<svg xmlns="http://www.w3.org/2000/svg" width="32" height="32" fill="none" viewBox="0 0 16 16"><path fill="#181c1f" d="M0 0h16v16H0z"/><path fill="#fff" fill-rule="evenodd" d="M5.828 2.2C7.32.6 9.762.6 11.254 2.2L14.5 5.68a1.9 1.9 0 0 1 0 2.57l-1.082 1.161a1.72 1.72 0 0 1-2.54 0l-.36-.387a.23.23 0 0 0-.174-.082.23.23 0 0 0-.172.082l-.361.387-4.689 5.029a1.72 1.72 0 0 1-2.54 0L1.5 13.281a1.9 1.9 0 0 1 0-2.57l4.69-5.03.36-.386a.4.4 0 0 0 0-.525L5.468 3.61a.75.75 0 0 1 0-1.023zm1.218.903.6.644c.629.674.666 1.723.112 2.44l1.519 1.63a1.72 1.72 0 0 1 2.337.185l.361.387c.057.062.12.082.173.082s.115-.02.173-.082l1.082-1.16a.4.4 0 0 0 0-.525l-3.247-3.481c-.859-.922-2.208-.962-3.11-.12M8.237 8.9l-1.5-1.608-4.14 4.44a.4.4 0 0 0 0 .525l1.082 1.16c.058.062.12.082.173.082s.116-.02.173-.082z" clip-rule="evenodd"/></svg>
